X:1
T:Title
%%score ( 1 2 ) { 3 | 4 }
L:1/8
Q:1/4=140
M:3/2
K:C
V:1 treble nm="Grand Piano, Soprano"
V:2 treble 
V:3 bass nm="Choir Pad, Jesus, Thy Blood and Name"
V:4 bass 
V:1
 C2 E2 G2 [Ec]6 | [Gc]2 [GB]2 [FA]2 [EG]6 | [Ec]2 [EB]2 [EA]2 [DG]6- | [DG]2 [D^F]4 [DG]6 | %4
w: By~Fred~L.~Hahn,~harmonized~by~C.~O.~Hinckley * * *||||
 [EG]2 [FA]2 [EG]2 [DF]6 | [B,D]2 C2 [CE]2 [EG]6 | z4 z2 d6- | d2 z2 z4 z4 | %8
w: ||||
 [EG]2 [DF]2 [CE]2 [B,D]6 | [FA]2 [EG]2 [DF]2 [CE]6 | [Ec]2 [EG]2 [CE]2 [B,F]6- | %11
w: |||
 [B,F]2 [B,D]4 [CE]6 | C2 [CE]2 [EG]2 [Ec]6 | [GB]2 [Fd]2 [Fc]2 [FA]6 | [Fc]2 [EG]2 [CE]2 [DF]6- | %15
w: ||||
 [DF]2 [G,B,]4 [G,C]6 | [EG]2 [EG]2 [EG]2 [FG]6 | [Gc]2 [GB]2 [FA]2 [EG]6- | [EG]2 [EG]4 [FA]6- | %19
w: ||||
 [FA]2 [FA]4 [DB]6- | [DB]2 [FB]4 [Ec]6- | [Ec]4 z4 z4 |] %22
w: |||
V:2
 x12 | x12 | x12 | x12 | x12 | x12 | [Ec]2 [EB]2 [EA]2 D4 G2- | G2 [D^F]4 [DG]6 | x12 | x12 | x12 | %11
 x12 | x12 | x12 | x12 | x12 | x12 | x12 | x12 | x12 | x12 | x12 |] %22
V:3
 C,2 E,2 G,2 G,6 | C2[K:treble] C2 C2 C6 | G,2 G,2 C2[K:bass] B,6- | B,2 A,4 B,6 | %4
 G,2 G,2 G,2 G,6 | F,2 E,2 G,2[K:treble] C6 | C2 D2 C2 B,6- | B,2[K:bass] A,4 B,6 | %8
 C2 B,2 G,2 G,6 | G,2 G,2 G,2 G,6 | G,2 G,2 G,2 G,6- | G,2 G,4 G,6 | E,2 G,2 C2 G,6 | %13
 G,2 A,2 A,2 C6 | A,2 C2 G,2 G,6- | G,2 G,2 F,2 E,6 | C2 C2 C2 B,6 | C2 C2 C2 C6- | C2 C4 C6- | %19
 C2 C4[K:bass] G,6- | G,2 G,4 G,6- | G,4 z4 z4 |] %22
V:4
 z4 z2 C,6 | E,2 F,2 F,2 C,6 | C,2 C,2 C,2 D,6- | D,2 D,4 G,6 | z4 z2 G,,6 | G,,2 G,,2 G,,2 C,6 | %6
 A,,2 B,,2 C,2 D,6- | D,2 D,4 G,6 | G,2 G,2 z4 z4 | G,,2 G,,2 G,,2 C,6 | C,2 E,2 C,2 D,6- | %11
 D,2 G,,4 C,6 | C,2 C,2 C,2 C,6 | E,2 F,2 F,2 F,6 | F,2 G,2 z2 G,,6- | G,,2 G,,4 C,6 | %16
 C,2 E,2 G,2 G,6 | E,2 F,2 .A,4 z4 | z2 C,4 F,6- | F,2 .D,6 z4 | z4 z2 C,6- | C,4 z4 z4 |] %22

